X: 20
T:River Jig
R:jig
S:Prince Edward Island Fiddling Volume 1
Z:Prince Edward Island
M:6/8
L:1/8
Q:1/4=200
K:Dmaj
E|F3FED |B3BAG |FAF DEF |FEE EDE |\
F3FED |B3Bcd |BdB AFE|1FDDD2:|2FDD DBc 
||:d3dfd|c3cec|d3dfd|cFF F2e|
fgf efe|ded dBA |BdB AFE|FDD D3||
